Papirus/16x16/actions/im-identi.ca.svg

<?xml version="1.0" encoding="UTF-8" standalone="no"?>
<svg xmlns="http://www.w3.org/2000/svg" viewBox="0 0 16 16">
  <defs>
    <style type="text/css" id="current-color-scheme">
      .ColorScheme-Text {
        color:#5c616c;
      }
      </style>
  </defs>
  <path 
     style="fill:currentColor;opacity:0.3"
     class="ColorScheme-Text"
     d="M 7 0.0390625 C 3.676 0.0390625 1 2.7150625 1 6.0390625 L 1 10.039062 L 0 14.039062 L 4 12.039062 L 7 12.039062 C 7.8186 12.039062 8.5970406 11.874078 9.3066406 11.580078 C 9.1777406 11.270078 9.1021875 10.935797 9.0546875 10.591797 C 8.4269875 10.873797 7.7354 11.039062 7 11.039062 L 2 11.039062 L 2 6.0390625 C 2 3.2690625 4.23 1.0390625 7 1.0390625 C 9.77 1.0390625 12 3.2690625 12 6.0390625 C 12 6.0870625 11.993188 6.1320875 11.992188 6.1796875 C 12.316187 6.0956875 12.65 6.0390625 13 6.0390625 C 13 2.7150625 10.324 0.0390625 7 0.0390625 z M 13 7.0390625 C 11.338 7.0390625 10 8.3770625 10 10.039062 C 10 11.017062 10.471406 11.874875 11.191406 12.421875 L 13 16.039062 L 14.808594 12.421875 C 15.528594 11.874875 16 11.017062 16 10.039062 C 16 8.3770625 14.662 7.0390625 13 7.0390625 z "
      />
</svg>

<?xml version="1.0" encoding="UTF-8" standalone="no"?>
<!--Created with Inkscape (http://www.inkscape.org/)-->
<svg id="svg3049" xmlns:rdf="http://www.w3.org/1999/02/22-rdf-syntax-ns#" xmlns="http://www.w3.org/2000/svg" height="16" width="16" version="1.1" xmlns:cc="http://creativecommons.org/ns#" xmlns:dc="http://purl.org/dc/elements/1.1/">
 <metadata id="metadata3054">
  <rdf:RDF>
   <cc:Work rdf:about="">
    <dc:format>image/svg+xml</dc:format>
    <dc:type rdf:resource="http://purl.org/dc/dcmitype/StillImage"/>
    <dc:title/>
   </cc:Work>
  </rdf:RDF>
 </metadata>
 <g id="layer1" transform="translate(-421.71 -531.79)">
  <g id="layer1-8" transform="translate(418.71 -501.57)">
   <path id="path4163" opacity="1" fill="#5c616c" transform="translate(3 1033.4)" d="m7 0c-3.324 0-6 2.676-6 6v4l-1 4 4-2h3c0.8186 0 1.597-0.165 2.3066-0.459-0.1289-0.31-0.2044-0.646-0.2519-0.99-0.6277 0.282-1.3193 0.449-2.0547 0.449h-5v-5c0-2.77 2.23-5 5-5s5 2.23 5 5c0 0.048-0.007 0.093-0.008 0.1406 0.324-0.084 0.658-0.1406 1.008-0.1406 0-3.324-2.676-6-6-6zm6 7c-1.662 0-3 1.338-3 3 0 0.978 0.471 1.834 1.191 2.381l1.809 3.619 1.809-3.619c0.72-0.547 1.191-1.403 1.191-2.381 0-1.662-1.338-3-3-3z"/>
   <path id="rect4108" fill="#5c616c" d="m6 1042.3v0.022h0.017578c-0.00558-0.01-0.012038-0.014-0.017578-0.022z"/>
  </g>
 </g>
</svg>
